!! 00000] TT[00
!! NN
!!!OTL: Shiliu hua kai hong yanyan
!!!ARE: Asia, China,ÿHubei, Tongshan
!! Ethnic Group: Han
!! I, 372
!!!SCT: C0103
!!!YEM: Copyright 1995, estate of Helmut Schaffrath.
**kern
*ICvox
*Ivox
!! Mixed meters:  2/4; 1/4
*M1/4
*k[f#c#]
*D:
{16b
16dd
8a
16b
16dd
8a
=1
8a
8a
8r
8a
=2
8b
16a
16b
4ee}
=3
{8ee
16ee
16dd
8b
8a
=4
16b
16a
16a
16f#
4a}
=5
{8a
16b
16a
8f#
8a
=6
8a
16b
16a
8f#
8a}
=7
{16b
16dd
16b
16a
4b
=8
8b
8b
8r}
{16b
16b
=9
8ee
8b
8r
16b
16b
=10
4ee
16ee
16r
16b
16b
=11
4dd}
=12
{16dd
16a
16b
16a
=13
*M2/4
8f#
8a
8b
16a
16b
=14
2a}
=15
{2r
=16
16b
16dd
16b
16a
8f#
8a
=17
16b
16dd
16b
16a
8b
8dd}
=18
{8dd
8dd
8a
8b
=19
16a
16dd
16b
16a
8f#
8f#}
=20
{8dd
16b
16dd
8a
8a
=21
8dd
8dd
8a
8b}
=22
{8dd
8dd
8a
8b
=23
8a
16b
16a
8f#
8f#}
=24
{8dd
16dd
16dd
8f#
8f#
=25
8dd
8dd
8a
8b}
=26
{8dd
8dd
8a
8b
=27
8a
16b
16a
8f#
8f#}
=28
{8dd
8dd
8f#
8f#
=29
8dd
8dd
8a
8b}
=30
{8dd
8dd
8a
8b
=31
8a
4a
8b
=32
8b
16b
16dd
4ee}
=33
{8ee
16ee
16dd
8b
16b
16a
=34
16b
16a
16a
16f#
4a}
=35
{8a
16b
16a
8f#
8a
=36
8a
16b
16a
8f#
8a}
=37
{16b
16dd
16b
16a
4b
=38
8b
8b
8r}
{16b
16b
=39
8ee
8b
8r
16b
16b
=40
8ee
8ee
16ee
16r
8b
=41
*M1/4
4dd}
=42
{16dd
16a
16b
16a
=43
*M2/4
16f#
16a
8b
8b
16a
16b
=44
4.a}
{16b
16b
=45
8ee
8b
8r
16b
16b
=46
8ee
8ee
16ee
16r
8b
=47
*M1/4
4dd}
=48
{16dd
16a
16b
16a
=49
*M2/4
16f#
16a
8b
8bb
16aa
16bb
=50
[2aa
=51
2aa]}
==
!!!AGN: Wuge, Dengdiao, Lianxiang. Xin minge
!! Strophe endet S. 373 Mitte.???    Neues Volkslied.
!!    Vorspiel weggelassen.
!!!ONB: ESAC (Essen Associative Code) Database: CHINA
!!!AMT: irregular
!!!AIN: vox
!!!EED: Helmut Schaffrath
!!!EEV: 1.0
*-
!!!ONB: Tied note syntax fixed by Craig Sapp, 2004/05/03/
